X:1
T:Witcher 3 - Blood and Wine
T:Slopes of Blessure
T: Based on piano arrangement by theHumanChord 
T:⑥ = D
T:Composer: Marcin Przybyłowicz Arr for guitar: drBabus 
T:Witcher 3 - Blood and Wine
C:Marcin Przybyłowicz
%%score ( 1 2 )
L:1/8
Q:1/4=85
M:4/4
K:F
V:1 treble-8 nm="Classical Guitar" snm="Guit."
V:2 treble-8 
V:1
 z2 D2 CDEC | z2 FE F3/2(3E/4F/4E/4 D2 | DEFA G2 cG | A2 z G/(3F/4G/4F/4 E2 F/G/E/F/ | D2 d2 cdec | %5
 f3 (3e/f/e/ d2 [G=B]2 | DEFA G3/2A/4G/4 FE | D3 A, [D,D]2 DE | F2 A,G, A,2 D2 | FEDA, C2 DE | %10
 F2 A,G, A,2 D2 | D,2 A,2 D2 [Ad][ce] | [df]2 [fa][eg] [fa]2 [ad']2 | f'e'd'a c'2 d'e' | %14
 f'2 ag a2- [ad']2 | D,8 | D,/A,/D/A/ d2 cdec | A2 fe f3/2(3e/4f/4e/4 d2 | defa g2 c'g | %19
 a2 f'e' d'afe | dd d'2 c'd'e'c' | f'3 (3e'/f'/e'/ d'>d [g=b]2 | defa g3/2a/4g/4 fe | %23
 d3 a d'2 d'e' | f'2 ag a2 d'2 | z2 da g3/2a/4g/4 fe | c2 d3 (3e/f/e/ dc | d3 A d2 [Ad][ce] | %28
 [df]2 [FA][EG] [FA]2- [FAd]2 | [df][ce][Ad][EA] [Ac]2 de | [DBdf]2 [FA][EG] [FA]2 [Ad]2 | %31
[Q:1/4=95] DD!arpeggio![DAd]D DD_EE | DD!arpeggio![DAd]D DD_EE | DD!arpeggio![DAd]D DD_EE | %34
 [CF]C[CF]C [CF]C[CF]C | DD!arpeggio![DAd]D DD_EE | DD!arpeggio![DAd]D DD_EE | %37
 DD!arpeggio![DAd]D DD_EE | z8 | [FAd]3/2[FAd]3/2 z [FAe]2 (3dAG | %40
 [FAdf]3/2[EAdf]3/2 z [Adfa]2 [Aa]2 | [Bdgb]3/2[Bdgb]3/2 z [Bdg]2 [Ag]2 | %42
 [Adfa]3/2[Adfa]3/2 z [EA^ce]2 [Aa]2 | [FAd]3/2[FAd]3/2 z [FAe]2 (3dAG | %44
 [FAdf]3/2[FAdf]3/2 z [Adfa]2 [Aa]2 | [Bdgb]3/2[Bdgb]3/2 z [Bdg]2 [Ag]2 | %46
 [^cea^c']3/2[ceac']3/2 z [cea]2 [ca]2 |[Q:1/4=100] d/e/a/a/ b/b/a/a/ b/b/a/a/ f/f/e/e/ | %48
 d/e/a/a/ b/b/a/a/ b/b/a/a/ f/f/e/e/ | d/e/a/a/ b/b/a/a/ b/b/a/a/ f/f/e/e/ | %50
 d/e/a/a/ b/b/a/a/ b/b/a/a/ f/f/e/e/ | d/e/a/a/ b/b/a/a/ b/b/a/a/ f/f/e/e/ | %52
 d/e/a/a/ b/b/a/a/ b/b/a/a/ f/f/e/e/ | d/e/a/a/ b/b/a/a/ b/b/a/a/ f/f/e/e/ | %54
 d/e/a/a/ b/b/a/a/ f/a/a/a/ ^c/a/a/a/ |[Q:1/4=90] [FAd]2 [Adfa][Adg]3/2[Ae]3/2 [Adf]>[Adg] | %56
[M:2/4] z [Ad]3 |[M:4/4] [FAd]2 [Adfa][Adg]3/2[Ae]3/2 [Adf]>[Adg] |[M:2/4] z [Ad]3 | %59
[M:4/4] [FAd]2 [Adfa][Adg]3/2[Ae]3/2 [Adf]>[Adg] | z [A,EA]3/2[A,EA]3/2 [B,DG]3 [B,DG] | %61
 [B,DG]2 [^CEA^c]3 [CEAc] [CEAc]2 | %62
 [DAd]/[DAd]/[DAd]/[DAd]/ [DAd]/[DAd]/[DAd]/ z/ z2 [DAd]/[DAd]/[DAd]/[DAd]/ | %63
 [DAd]/[DAd]/[DAd]/ z/ z2 d/d/d/d/ d/d/d/ z/ | z2 !fermata![D,D]6 |] %65
V:2
 x D,6 z | [D,A,]8 | B,4 C4 | D4 z4 | B,4 C4 | A,4 D,4 | B,4 C4 | x8 | x8 | x8 | x8 | x8 | x8 | %13
 x8 | x8 | x8 | x8 | A,8 | D8 | D,8 | D,8 | D8 | D8 | D8 | D8- | D8 | C2 D6 | D3 A, D4- | D2 z6 | %29
 x8 | x8 | D,8 | D,8 | D,8 | x8 | D,8 | D,8 | D,8 | [CF]C[CF]C [CF]C[CF]C | D,2 z/ D/A/d/ z2 F2 | %40
 D,2 z/ D/A/d/ z2 (3dAG | D,2 z/ D/A/d/ z2 (3dAG | D,2 z/ D/A/d/ z2 (3^cAG | D,2 z/ D/A/d/ z2 F2 | %44
 D,2 z/ D/A/d/ z2 (3dAG | D,2 z/ D/A/d/ z2 (3dAG | D,2 z/ D/A/d/ z2 (3eAG | D3/2d3/2D3/2d3/2DD | %48
 C3/2c3/2C3/2c3/2CC | G,3/2G3/2G,3/2G3/2G,G, | B,3/2B3/2B,3/2B3/2B,B, | A,3/2A3/2A,3/2A3/2A,A, | %52
 _A,3/2_A3/2A,3/2A3/2A,A, | G,3/2G3/2G,3/2G3/2G,G, | F,3/2F3/2F,3/2F3/2FF, | D,8 |[M:2/4] x4 | %57
[M:4/4] D,8 |[M:2/4] x4 |[M:4/4] D,8 | x8 | x6 z2 | D,/D,/D,/D,/ D,/D,/D,/ z/ z2 D,/D,/D,/D,/ | %63
 D,/D,/D,/ z/ z2 D,/D,/D,/D,/ D,/D,/D,/ z/ | x8 |] %65

